X: 21590
T: Killard
R: reel
M: 4/4
K: Adorian
A3A A2ef|gfgf edBA|GEEF G3A|BcBA GEDD|
BA (3AAA eAcd|egfa gedB|cBcd egfa|1 gedB BAGE:|2 gedB BAAA||
agbg agbg|agbg agef|gebe (3gfe be|gebe ^gedf|
eaa2 aaea|aa (3bba gedB|BABd egfa|1 gedB BAAA:|2 gedB BAGE||

